/* XPM */
static char * shade_toggled_prelight_xpm[] = {
"24 26 4 1",
" 	c None",
".	c #1F1F3D",
"+	c #0066FF s active_color_1",
"@	c #0066FF",
"@@@@@@@@@@@@@@@@@@@@@@@@",
"........................",
"........................",
"........................",
"........................",
"........................",
"........................",
"........................",
"........................",
"...........++...........",
"...........++...........",
"...........++...........",
".......+++.++.+++.......",
"........++++++++........",
".........++++++.........",
"..........++++..........",
"...........++...........",
"........................",
"........................",
"........................",
"........................",
"........................",
"........................",
"........................",
"........................",
"........................"};
