/* XPM */
static char * shade_prelight_xpm[] = {
"24 26 4 1",
" 	c None",
".	c #006699",
"+	c #87a1e0",
"@	c #006699",
"@@@@@@@@@@@@@@@@@@@@@@@@",
"........................",
"........................",
"........................",
"........................",
"........................",
"........................",
"........................",
"........................",
"...........++...........",
"..........++++..........",
".........++++++.........",
"........++++++++........",
".......+++.++.+++.......",
"...........++...........",
"...........++...........",
"...........++...........",
"........................",
"........................",
"........................",
"........................",
"........................",
"........................",
"........................",
"........................",
"........................"};
